X: 1373
T: An Sean Veist 's An Carbhat
R: hornpipe
M: 4/4
K: Dmajor
FG|AB GA FG AB|cB cA d2 de|fe dc AG (3EFG|Ad ce d2 FG|
AB GA FG AB|cB cA d2 de|fe dc (3ABA GE|D2 D2 D2 FG|
Ad de f2 fe|dc AG A2 (3EFG|Ad de (3fgf ef|gf ec d2 de|
fd ef gf ec|df ec A2 (3ABc|df ed cA GE|D2 D2 D2 FG|

